X:245
T:The pigeon on the gate
T:Gallagher's best
R:Reel
O:Ireland
B:Kerr's Fourth p20
B:O'Neill's 1406
B:Etc.
S:1 My arrangement from various sources
Z:1 Transcription, arrangement, chords:Mike Long
S:2 Sean Ryan, fiddle Chris Delaney collection
S:2 IrTrad, 20 Oct 1999,Paul de Grae
Z:2 Transcription:Paul de Grae?, chords:Mike Long
M:C|
L:1/8
K:D
dc|\
"Em"BE~E2 BEdE|BE~E2 BAFE|"D"D2 (3(FED) ADFE|\
DEFA BAFA|"Em"BE~E2 BEdE|
"Em"BE~E2 BAFE|"D"D2FA dfec|"A"dBAF E2:|\
|:FA|\
"Em"Beed efed|"(G)"(3(Bcd) ef gfed|"D"Bcde dcdB|
"(Bm)"AF~F2 DEFA|"Em"Be~e2 efed|"(G)"(3(Bcd) ef g2fg|\
"D"(3(agf) (3(gfe) fdec|"A"dBAF E2:|
P:APB Neillidh Boyle, APB Sean Ryan
K:C
Bc|:\
"G"dG ~G2 dGeG|d^cde d=cAG|"F"~F3 A cF ~F2|Acfd cF (3(ABc)|\
"G"dG ~G2 dGeG|
d^cde d=cAG|"F"~F2 Ac "(C)"fage|"F"fdcA "G"GABc:|\
|:"G"dgg^f g2 ~g2|dg ~g2 bgag|
"C"ec ~c2 gceg|"F"~f3 g fdcA|\
"G"dgg^f g2 ~g2|dg ~g2 bgag|"C"ec ~c2 gceg|"F"fdcA "G"GABc:|
